resources/svg/paintbrush-o.svg

<svg width="15" height="15" viewBox="0 0 15 15" fill="none" xmlns="http://www.w3.org/2000/svg">
<path d="M0.5 14L0.0189931 13.8635C-0.0381877 14.065 0.0362816 14.2808 0.205568 14.4041C0.374854 14.5275 0.603075 14.5322 0.77735 14.416L0.5 14ZM1.47122 10.5776L1.95222 10.7141L1.47122 10.5776ZM1.01127 13.6592L0.733917 13.2431H0.733917L1.01127 13.6592ZM3.07289 13.5109L2.85794 13.9623H2.85794L3.07289 13.5109ZM5 6L4.74948 5.56729C4.61505 5.64512 4.52442 5.78101 4.50424 5.93503C4.48405 6.08906 4.5366 6.24371 4.64645 6.35355L5 6ZM9 10L8.64645 10.3536C8.75629 10.4634 8.91094 10.5159 9.06497 10.4958C9.21899 10.4756 9.35488 10.385 9.43271 10.2505L9 10ZM14.5 0.5L14.9327 0.750518C15.0462 0.554477 15.0137 0.306624 14.8536 0.146447C14.6934 -0.013731 14.4455 -0.0462106 14.2495 0.0672868L14.5 0.5ZM0.981007 14.1365L1.95222 10.7141L0.990209 10.4411L0.0189931 13.8635L0.981007 14.1365ZM3.93693 9.21423H4V8.21423H3.93693V9.21423ZM6 11.2142V11.2671H7V11.2142H6ZM4.05287 13.2142H3.97306V14.2142H4.05287V13.2142ZM0.733917 13.2431L0.22265 13.584L0.77735 14.416L1.28862 14.0752L0.733917 13.2431ZM3.28785 13.0594C2.46353 12.6669 1.49357 12.7367 0.733917 13.2431L1.28862 14.0752C1.7554 13.764 2.35142 13.7211 2.85794 13.9623L3.28785 13.0594ZM3.97306 13.2142C3.73598 13.2142 3.50189 13.1613 3.28785 13.0594L2.85794 13.9623C3.20628 14.1282 3.58724 14.2142 3.97306 14.2142V13.2142ZM6 11.2671C6 12.3425 5.12824 13.2142 4.05287 13.2142V14.2142C5.68052 14.2142 7 12.8948 7 11.2671H6ZM4 9.21423C5.10457 9.21423 6 10.1097 6 11.2142H7C7 9.55738 5.65685 8.21423 4 8.21423V9.21423ZM1.95222 10.7141C2.20406 9.82664 3.01444 9.21423 3.93693 9.21423V8.21423C2.56729 8.21423 1.36412 9.12348 0.990209 10.4411L1.95222 10.7141ZM4.64645 6.35355L8.64645 10.3536L9.35355 9.64645L5.35355 5.64645L4.64645 6.35355ZM14.2495 0.0672868L4.74948 5.56729L5.25052 6.43271L14.7505 0.932713L14.2495 0.0672868ZM9.43271 10.2505L14.9327 0.750518L14.0673 0.249482L8.56729 9.74948L9.43271 10.2505ZM7.14645 4.85355L10.1464 7.85355L10.8536 7.14645L7.85355 4.14645L7.14645 4.85355Z" fill="black"/>
</svg>

<svg viewBox="0 0 15 15" fill="none" xmlns="http://www.w3.org/2000/svg" fill="currentColor"><path d="M.5 14l-.481-.136a.5.5 0 00.758.552L.5 14zm.971-3.422l.481.136-.48-.136zm-.46 3.081l-.277-.416.277.416zm2.062-.148l-.215.451.215-.451zM5 6l-.25-.433a.5.5 0 00-.104.787L5 6zm4 4l-.354.354a.5.5 0 00.787-.103L9 10zM14.5.5l.433.25a.5.5 0 00-.684-.683L14.5.5zM.981 14.136l.971-3.422-.962-.273-.971 3.422.962.274zm2.956-4.922H4v-1h-.063v1zm2.063 2v.053h1v-.053H6zm-1.947 2h-.08v1h.08v-1zm-3.32.03l-.51.34.554.832.512-.34-.555-.833zm2.555-.185a2.594 2.594 0 00-2.554.184l.555.832a1.594 1.594 0 011.569-.113l.43-.903zm.685.155c-.237 0-.471-.053-.685-.155l-.43.903c.348.166.73.252 1.115.252v-1zM6 11.267a1.947 1.947 0 01-1.947 1.947v1A2.947 2.947 0 007 11.267H6zM4 9.214a2 2 0 012 2h1a3 3 0 00-3-3v1zm-2.048 1.5a2.063 2.063 0 011.985-1.5v-1c-1.37 0-2.573.91-2.947 2.227l.962.273zm2.694-4.36l4 4 .708-.708-4-4-.708.708zM14.25.067l-9.5 5.5.5.866 9.5-5.5-.5-.866zM9.432 10.251l5.5-9.5-.866-.502-5.5 9.5.866.502zM7.146 4.854l3 3 .708-.708-3-3-.708.708z" fill="currentColor"/></svg>
